X:1
T:Title
%%score 1 { 2 | ( 3 4 ) }
L:1/8
M:4/4
K:G
V:1 treble nm="Grand Piano, Piano"
V:2 treble nm="Grand Piano, Piano"
V:3 bass 
V:4 bass 
V:1
 z4 z2[Q:1/4=100] [B,D]2 | [EG]2 [GB]2 [GA]2 [FA]2 | [GB]6 [Ad]2 |[M:2/4] [Gc]2 [GB]2 | %4
w: 1.~How~|can~ we~ sin ners~|know~ our~|sins~ on~|
 [GA]2 [FA]2 |[M:4/4] G6 [EG]2 | [DF]2 [CE]2 [B,D]2 [DG]2 | [EG]2 [EA]2 [^DB]2 [=DB]2 | %8
w: earth~ for|given?~ How~|can~ my~ gra cious~|Sa vior~ show~ my~|
 [CA]2 [DG]2 [EG]2 [DF]2 |[M:3/4] [DG]6 |] %10
w: name~ in scribed~ in~|heaven?~|
V:2
 z4 z2 G,2 | B,2 D2 E2 D2 | D6 D2 |[M:2/4] E2 D2 | D4 |[M:4/4][K:bass] B,6 B,2 | B,2 G,2 G,2 G,2 | %7
 B,2 A,2 F,2 G,2 | E,F, G,2 C2 A,2 |[M:3/4] B,6 |] %10
V:3
 z8 | E,2 B,,2 C,2 D,2 | G,6 F,2 |[M:2/4] E,2 G,2 | D,2 z C |[M:4/4] G,,6 E,2 | %6
 B,,2 C,2 G,,2 B,,2 | E,2 C,2 B,,2 G,,2 | A,,2 B,,2 C,2 D,2 |[M:3/4] G,,6 |] %10
V:4
 x8 | x8 | x8 |[M:2/4] x4 | z2 D,2 |[M:4/4] x8 | x8 | x8 | x8 |[M:3/4] x6 |] %10

